X: 4
T: The Humours Of Lisheen
R: jig
M: 6/8
L: 1/8
K: Gmaj
B/d/ | efg edB | ~c2 A BGE | ~G3 B/c/dB | BAG ABd |
efg edB | ~c2 A BGE | ~G3 ABB | AGF G2 :|
D | GBd ~g3 | agf g2 e | fed edB | cBA BGE |
GBd ~g3 | agf g2 e | fed edB | AGF G2 :|


Tune 1600	Setting 1600

